/* XPM */
static char *result[] = {
/* columns rows colors chars-per-pixel */
"32 32 43 1 ",
"  c #111926",
". c #111927",
"X c #131927",
"o c #111A26",
"O c #111A27",
"+ c #121A26",
"@ c #131A26",
"# c #121A27",
"$ c #121B27",
"% c #131B27",
"& c #2F3642",
"* c #2F3742",
"= c #303642",
"- c #303742",
"; c #3E454F",
": c #3E4550",
"> c #3F4550",
", c #4D535D",
"< c #5B616A",
"1 c #5C616B",
"2 c #6A6F78",
"3 c #6B6F78",
"4 c #6A7078",
"5 c #6B7078",
"6 c #797E85",
"7 c #7A7E85",
"8 c #797E86",
"9 c #7A7E86",
"0 c #7A7F86",
"q c #A6A9AE",
"w c #B5B7BB",
"e c #B5B7BC",
"r c #C3C5C9",
"t c #C4C6C9",
"y c #E1E2E4",
"u c #E1E3E4",
"i c #E2E2E4",
"p c #E2E3E4",
"a c #F0F1F1",
"s c #F0F1F2",
"d c #F1F1F2",
"f c white",
"g c None",
/* pixels */
"gg%$#########################@gg",
"g$############################+g",
"o##############################.",
"###############>&##############+",
"###############12###############",
"###############qw###############",
"##############-ff=##############",
"##############qffq##############",
"#############5ffff,#############",
"############-pffffa=############",
"###########-pffffffi=###########",
"##########>pffffffffi=##########",
"#########0dfffffffffff7#########",
"#######-tfffffffffffffft=#######",
"#####,qffffffffffffffffffq=#####",
"##&9tfffffffffffffffffffffft3=##",
"##*4rffffffffffffffffffffffr8&##",
"#####*qffffffffffffffffffq,#####",
"#######*tffffffffffffffr:#######",
"#########8fffffffffffs6#########",
"##########*uffffffffy:##########",
"###########*uffffffy&###########",
"############*sffffy&############",
"#############,ffff2#############",
"##############qffq##############",
"##############*ff&##############",
"###############eq###############",
"###############5<###############",
"$##############-;###############",
"X############################## ",
"g$#############################g",
"ggO##########################.gg"
};
